!!!COA:	Josquin des Prez
!!!CDT:	~1450-1521/08/27
!!!COM2: La Rue, Pierre de
!!!CDT2: ~1452///-1518/11/20/
!!!OPR:	Missa Cum iocunditate
!!!ONM:	2
!!!OTL:	Gloria
!!!AGN:	Mass; Gloria
!!!SCT:	NJE 3.4
!!!SCA:	New Josquin Edition 3.4
!!!voices: 4
!!!voices-OPR: 4(-5)
**kern	**kern	**kern	**kern
*staff4	*staff3	*staff2	*staff1
*Ivox	*Ivox	*Ivox	*Ivox
*I"Bassus	*I"Tenor	*I"Altus	*I"Superius
*I'B	*I'T	*I'A	*I'S
*>[A,B]	*>[A,B]	*>[A,B]	*>[A,B]
*>Gloria[A]	*>Gloria[A]	*>Gloria[A]	*>Gloria[A]
*>QuiTollis[B]	*>QuiTollis[B]	*>QuiTollis[B]	*>QuiTollis[B]
*clefF4	*clefGv2	*clefGv2	*clefG2
*>A	*>A	*>A	*>A
*k[]	*k[]	*k[]	*k[]
*M3/1	*M3/1	*M3/1	*M3/1
*met(O)	*met(O)	*met(O)	*met(O)
=1-	=1-	=1-	=1-
!!section: Et in terra pax
!!!OMD: Et in terra pax
1GG	0.G	1.d	0g
2.GG/	.	.	.
.	.	2B\	.
4AA/	.	.	.
2BB/	.	2d\	2g/
[2C/	.	[2e\	2e/
=2	=2	=2	=2
4C/]	1E	4e\]	2g/
4BB/	.	4d\	.
4C/	.	1d	2.a/
4D\	.	.	.
1E	1G	.	.
.	.	.	4g/
.	.	2c\	1g
1D	1A	1d	.
.	.	.	2f#i/
=3	=3	=3	=3
1GG	0G	2r	0g
.	.	1d	.
2r	.	.	.
1G	.	2B\	.
.	1G	2d\	2r
2E\	.	[2e\	[2b\
=4	=4	=4	=4
1G	0.r	4e\]	2b\]
.	.	4d\	.
.	.	1d	2g/
2G\	.	.	2b\
2.A\	.	4c\	2.cc\
.	.	4B\	.
.	.	2c\	.
4G\	.	.	4b\
2G\	.	2d\	2b\
=5	=5	=5	=5
2r	1d	2r	2r
1G	.	1g	1b
.	2B\	.	.
1G	2d\	2g\	1b
.	1e	2g\	.
2E\	.	[2g\	2g/
=6	=6	=6	=6
2G\	0e	4g\]	2b\
.	.	4f\	.
1A	.	4e\	1cc
.	.	4d\	.
.	.	2c\	.
1G	.	2g\	1b
.	1d	2r	.
2G\	.	2G/	2g/
=7	=7	=7	=7
2F\	2r	2c\	2a/
1.G	2d\	2B\	2.b\
.	1B	2.G/	.
.	.	.	4e/
.	.	.	2g/
.	.	4B\	.
2F\	1d	2A/	2a/
2G\	.	2G/	2b\
=8	=8	=8	=8
0C	0e	2r	2.cc\
.	.	2G/	.
.	.	.	8b/L
.	.	.	8a/J
.	.	1c	1g
2r	1d	1B	2r
2G\	.	.	2g/
=9	=9	=9	=9
2F\	2r	2A/	2a/
1G	2d\	2G/	2.b\
.	2B\	2.d\	.
.	.	.	4e/
2G\	2B\	.	2g/
.	.	4c\	.
2F\	1d	2A/	2a/
2G\	.	2G/	2b\
=10	=10	=10	=10
0C	0.e	2.c\	2cc\
.	.	.	2.cc\
.	.	4B\	.
.	.	1G	.
.	.	.	4cc\
.	.	.	4cc\
.	.	.	4cc\
2r	.	1r	[1b
[2G\	.	.	.
=11	=11	=11	=11
4G\]	[0.d	1r	1b]
4G\	.	.	.
4G\	.	.	.
4G\	.	.	.
0D	.	2r	1r
.	.	2.f\	.
.	.	.	2r
.	.	4f\	.
.	.	4f\	[2a/
.	.	4f\	.
=12	=12	=12	=12
1r	0.d]	1d	2a/]
.	.	.	2a/
2r	.	2r	2a/
1D	.	1f	2.dd\
.	.	.	4cc\
2D\	.	2f\	4b\
.	.	.	4g/
=13	=13	=13	=13
2D\	0.r	2d\	2a/
2.G\	.	2.e\	2g/
.	.	.	1r
4F\	.	4d\	.
4E\	.	2c\	.
4C/	.	.	.
2D\	.	2B\	2r
2C/	.	2c\	[2e/
=14	=14	=14	=14
2r	1G	2r	2e/]
1C	.	1c	2e/
.	2G/	.	1.e
2C/	1G	2c\	.
2C/	.	2c\	.
2C/	2E/	2c\	2c/
=15	=15	=15	=15
2C/	2G/	2c\	2e/
1F	1A	1c	1f
2C/	2G/	2c\	2e/
2C/	1G	1c	[1e
[2C/	.	.	.
=16	=16	=16	=16
4C/]	0.r	2r	1e]
4BB/	.	.	.
4AA/	.	2c\	.
4GG/	.	.	.
[0C	.	2.c\	2r
.	.	.	2.cc\
.	.	4B\	.
.	.	4A/	.
.	.	4G/	4b\
.	.	[2c\	4a/
.	.	.	4g/
=17	=17	=17	=17
1C]	0.r	4c\]	2.cc\
.	.	4B\	.
.	.	4A/	.
.	.	4G/	4b\
2r	.	2.d\	4a/
.	.	.	4g/
2GG/	.	.	2.dd\
.	.	4c\	.
2.D\	.	4B\	.
.	.	4A/	4cc\
.	.	[2d\	4b\
4C/	.	.	4a/
=18	=18	=18	=18
4BB/	0G	2d\]	1dd
4AA/	.	.	.
1GG	.	2d\	.
.	.	2G/	2dd\
1C	.	2.g\	2g/
.	1E	.	2.cc\
.	.	4f\	.
2C/	.	4e\	.
.	.	4c\	4cc\
=19	=19	=19	=19
1GG	1G	0d	2b\
.	.	.	1g
0D	0A	.	.
.	.	.	4f#i/
.	.	.	4e/
.	.	1d	1f#i
=20	=20	=20	=20
1GG	0.G	1.B	0g
2r	.	.	.
2.G\	.	4A/	.
.	.	4G/	.
.	.	1d	1r
4A\	.	.	.
2B\	.	.	.
=21	=21	=21	=21
2.c\	0.r	1r	2.g/
4B\	.	.	4a/
2G\	.	2r	2b\
2.A\	.	2.c\	2.cc\
4B\	.	4d\	4b\
2c\	.	2e\	2g/
=22	=22	=22	=22
2.F\	0.r	2.f\	2.a/
4G\	.	4e\	4g/
2A\	.	2c\	2e/
2.D\	.	2.d\	2.f/
4E\	.	4c\	4e/
2F\	.	2A/	2c/
=23	=23	=23	=23
2.BB-/	0.r	2.B-\	2.d/
4C/	.	4A/	4c/
2D\	.	2F/	2A/
2GG/	.	1G	1B
1D	.	.	.
.	.	2F#i/	2A/
=24	=24	=24	=24
0.GG	0.d	1G	1.B
.	.	2G/	.
.	.	1B	2G/
.	.	.	1G
.	.	2G/	.
=25	=25	=25	=25
2r	1B	1G	1r
2G\	.	.	.
2G\	1d	1r	1r
2F\	.	.	.
2E\	1e	1r	2r
[2G\	.	.	2g/
=26	=26	=26	=26
4G\]	1d	1r	2g/
4F\	.	.	.
2D\	.	.	2f/
1C	1r	2r	2e/
.	.	2g\	2.g/
1r	1r	2g\	.
.	.	.	4f/
.	.	2f\	2d/
=27	=27	=27	=27
2r	0.r	2e\	1c
2c\	.	2.g\	.
2c\	.	.	1r
.	.	4f\	.
2B\	.	2d\	.
2A\	.	1c	2r
[2c\	.	.	2cc\
=28	=28	=28	=28
4c\]	0.r	1r	2cc\
4B\	.	.	.
2G\	.	.	2b\
1F	.	2r	2a/
.	.	2c\	2.cc\
1r	.	2c\	.
.	.	.	4b\
.	.	2B\	2g/
=29	=29	=29	=29
2r	0d	2A/	0f
2D\	.	2.d\	.
2.D\	.	.	.
.	.	4c\	.
.	.	4B\	.
4C/	.	4A/	.
2BB/	1d	2G/	2r
[2D\	.	2A/	2dd\
=30	=30	=30	=30
4D\]	1B	2F/	2.dd\
4C/	.	.	.
4BB/	.	2G/	.
4AA/	.	.	4cc\
0GG	0d	2r	2b\
.	.	2g\	2.dd\
.	.	2.g\	.
.	.	.	4cc\
.	.	.	4b\
.	.	4f\	4a/
=31	=31	=31	=31
2r	0.e	2e\	1g
2G\	.	2.g\	.
1.A	.	.	1cc
.	.	4f\	.
.	.	4e\	.
.	.	4d\	.
.	.	2c\	2cc\
[2G\	.	[2g\	[2b\
=32	=32	=32	=32
1G]	0d	4g\]	1b]
.	.	4f\	.
.	.	4d\	.
.	.	4e\	.
1F	.	2f\	1a
.	.	2F/	.
2E\	1r	1c	2g/
[2A\	.	.	[2cc\
=33	=33	=33	=33
2A\]	2r	2A/	2cc\]
1G	1d	2B\	1b
.	.	2G/	.
2G\	2B\	2.d\	4a/
.	.	.	4g/
2F\	1d	.	2a/
.	.	4c\	.
2G\	.	4B\	2b\
.	.	4A/	.
=34	=34	=34	=34
2E\	0e	2B\	2g/
2.A\	.	2c\	2.cc\
.	.	0A	.
4G\	.	.	4b\
4F\	.	.	4a/
4E\	.	.	4g/
1F	1d	.	1a
=35	=35	=35	=35
0.E	1r	2B\	0g
.	.	1c	.
.	1r	.	.
.	.	4B\	.
.	.	4A/	.
.	1G	1B	2r
.	.	.	[2g/
=36	=36	=36	=36
1r	[0.G	2r	2g/]
.	.	2.B\	2g/
2r	.	.	2g/
.	.	4c\	.
2.G\	.	2d\	2.b\
.	.	2.G/	.
4A\	.	.	4cc\
2B\	.	.	2dd\
.	.	4A/	.
=37	=37	=37	=37
2.E\	1G]	2B\	2.g/
.	.	2.E/	.
4F\	.	.	4a/
2G\	1E	.	2b\
.	.	4F/	.
2.C/	.	2G/	2.e/
.	1G	2C/	.
4D\	.	.	4f/
2E\	.	[2c\	2g/
=38	=38	=38	=38
2AA/	0.A	4c\]	1c
.	.	4d\	.
2.C/	.	2e\	.
.	.	1A	0cc
4BB/	.	.	.
4AA/	.	.	.
4GG/	.	.	.
1FF	.	1c	.
=39	=39	=39	=39
1GG	0G	2r	1.b
.	.	2g\	.
2r	.	2.g\	.
1G	.	.	2g/
.	.	4f\	.
.	1r	4d\	2b-i\
.	.	4e\	.
2F\	.	[2f\	2a/
=40	=40	=40	=40
2D\	1r	4f\]	2f/
.	.	4e\	.
2F\	.	4c\	2a/
.	.	4d\	.
2E\	1r	2.e\	2g/
2C/	.	.	2e/
.	.	4d\	.
2E\	2r	4B\	2g/
.	.	4c\	.
[2D\	[2d\	[2d\	2f/
=41	=41	=41	=41
2D\]	2d\]	2d\]	2d/
2.G\	2B\	2G/	2.e/
.	1d	1r	.
4F\	.	.	4d/
2D\	.	.	1d
1A	1e	1r	.
.	.	.	2c#i/
=42	=42	=42	=42
0D	1d	2r	1d
.	.	1A	.
.	1.d	.	2r
.	.	2A/	2.a/
2r	.	2.d\	.
.	.	.	8b\L
.	.	.	8cc\J
[2D\	2B\	.	[2dd\
.	.	4c\	.
=43	=43	=43	=43
4D\]	1d	4B\	4dd\]
8E\L	.	4A/	4cc\
8F\J	.	.	.
2.G\	.	1G	4b\
.	.	.	4a/
.	0e	.	1g
4F\	.	.	.
4E\	.	1c	.
4D\	.	.	.
1C	.	.	2r
.	.	2c\	2cc\
=44	=44	=44	=44
2G\	1d	2G/	2b\
4F\	.	2d\	1a
4D\	.	.	.
1E	1r	4c\	.
.	.	4A/	.
.	.	2B\	2g/
2AA/	1r	1A	1cc
2A\	.	.	.
=45	=45	=45	=45
2G\	1.d	2r	2b\
2.F\	.	2A/	2.a/
.	.	2F/	.
4D\	.	.	4g/
2E\	2B\	2G/	2g/
2D\	2d\	2.A/	2r
2A\	[2e\	.	2cc\
.	.	4G/	.
=46	=46	=46	=46
2G\	2e\]	2E/	2b\
4F\	1d	2F/	4b\
4D\	.	.	2a/
1E	.	1G	.
.	.	.	4g/
.	2B\	.	1g
1D	1d	1A	.
.	.	.	2f#i/
=47	=47	=47	=47
0.GGl	2.e\	0.Gl	0.gl
.	4d\	.	.
.	0dl	.	.
!!LO:LB:i:g=z
=48||	=48||	=48||	=48||
*>B	*>B	*>B	*>B
!!section: Qui tollis
!!!OMD: Qui tollis
*M2/1	*M2/1	*M2/1	*M2/1
*met(C|)	*met(C|)	*met(C|)	*met(C|)
0r	1d	0G	0r
.	2B\	.	.
.	2d\	.	.
=49	=49	=49	=49
0r	1e	1c	0g
.	1e	1c	.
=50	=50	=50	=50
0r	0e	1A	1cc
.	.	1A	1cc
=51	=51	=51	=51
0r	1d	1d	1a
.	1d	1d	1a
=52	=52	=52	=52
1r	1r	1G	1dd
1D	1d	2r	1dd
.	.	2A/	.
=53	=53	=53	=53
1G	1B	2B\	0g
.	.	2.d\	.
1G	1d	.	.
.	.	4c\	.
.	.	4B\	.
.	.	4A/	.
=54	=54	=54	=54
1E	0e	0G	1r
1E	.	.	1g
=55	=55	=55	=55
1A	1.e	0r	2a/
.	.	.	2.cc\
1A	.	.	.
.	.	.	4b\
.	2d\	.	4a/
.	.	.	4g/
=56	=56	=56	=56
0D	1d	2r	2.f/
.	.	2d\	.
.	.	.	4e/
.	2r	2d\	2d/
.	[2d\	2d\	2dd\
=57	=57	=57	=57
2r	2d\]	2.B\	2dd\
2G\	2B\	.	2dd\
.	.	4A/	.
2G\	1d	[1G	2.b\
2G\	.	.	.
.	.	.	4a/
=58	=58	=58	=58
2.E\	1e	0G]	1g
4D\	.	.	.
1C	1e	.	2r
.	.	.	2g/
=59	=59	=59	=59
2r	1e	1r	2cc\
2C/	.	.	2cc\
2F\	1d	2r	2a/
2F\	.	2d\	2a/
=60	=60	=60	=60
2D\	0d	2f\	2dd\
2D\	.	2f\	2dd\
2G\	.	2d\	1g
2G\	.	2d\	.
=61	=61	=61	=61
0C	0r	2g\	1r
.	.	2g\	.
.	.	1c	1cc
=62	=62	=62	=62
0r	0r	1g	2b\
.	.	.	1a
.	.	2f\	.
.	.	[2e\	2g/
=63	=63	=63	=63
1r	0r	2e\]	1f
.	.	2d\	.
1A	.	2c\	2e/
.	.	2e\	2cc\
=64	=64	=64	=64
2G\	1d	2r	2b\
1F	.	2A/	1a
.	2d\	2F/	.
2E\	2B\	2G/	2g/
=65	=65	=65	=65
2D\	2d\	1A	2f/
2C/	1e	.	2e/
2.A\	.	2.c\	2r
.	2e\	.	2cc\
4E\	.	4B\	.
=66	=66	=66	=66
2G\	1d	2G/	2b\
2F\	.	2A/	1a
2.G\	1d	1B	.
.	.	.	2g/
4F\	.	.	.
=67	=67	=67	=67
2D\	0r	2A/	2f/
2F\	.	1d	2d/
2G\	.	.	1e
2A\	.	2c#i\	.
=68	=68	=68	=68
[0D	[0d	2.d\	0d
.	.	4c\	.
.	.	2B\	.
.	.	[2A/	.
=69	=69	=69	=69
0D]	0d]	2A/]	1r
.	.	1G	.
.	.	.	1a
.	.	2F#i/	.
=70	=70	=70	=70
1GG	1B	0G	1.b
2r	1d	.	.
2GG/	.	.	2g/
=71	=71	=71	=71
2C/	1e	1r	1g
2C/	.	.	.
1BB	1d	2r	1r
.	.	2d\	.
=72	=72	=72	=72
1D	1d	2f\	2r
.	.	2f\	2a/
1AA	1r	1e	2cc\
.	.	.	2cc\
=73	=73	=73	=73
0r	0r	1g	1b
.	.	1d	1dd
=74	=74	=74	=74
2r	0r	0r	0a
2AA/	.	.	.
2C/	.	.	.
2C/	.	.	.
=75	=75	=75	=75
1BB	1d	2r	1r
.	.	2d\	.
1D	2B\	2f\	2r
.	2d\	2f\	2a/
=76	=76	=76	=76
1AA	1e	1e	2cc\
.	.	.	2cc\
1r	1e	1g	1b
=77	=77	=77	=77
0r	0d	0f	1dd
.	.	.	1a
=78	=78	=78	=78
2r	1r	2r	2r
2D\	.	2f\	2a/
2D\	1d	2f\	2a/
2D\	.	2f\	2a/
=79	=79	=79	=79
3%2GV	2d\	3%2gV	3%2bV
.	2B\	.	.
3G\Z	.	3e\Z	3g/Z
3F\V	1d	3f\V	3a/V
3%2GZ	.	3%2dZ	3%2bZ
=80	=80	=80	=80
1C	1e	1c	1cc
2r	1e	1r	2r
2C/	.	.	2g/
=81	=81	=81	=81
2.G\	1d	1r	2.b\
4E\	.	.	4g/
2F\	1d	2r	2a/
2G\	.	2d\	2b\
=82	=82	=82	=82
1C	1r	2.e\	2cc\
.	.	.	4b\
.	.	4e\	4a/
2r	2r	2e\	1g
[2G\	[2d\	[2g\	.
=83	=83	=83	=83
2G\]	2d\]	2g\]	1r
2G\	2B\	2d\	.
1G	1d	2r	2r
.	.	2g\	2b\
=84	=84	=84	=84
3%2CV	1e	3%2gV	3%2ccV
3%2C	.	3g\Z	3cc\Z
.	1e	3g\V	3cc\V
3%2CZ	.	3g\	3cc\
.	.	3g\Z	3cc\Z
=85	=85	=85	=85
1G	0d	1g	2b\
.	.	.	2b\
2r	.	2f\	2a/
2G\	.	[2d\	[2b\
=86	=86	=86	=86
2G\	0r	4d\]	4b\]
.	.	4c\	4a/
2G\	.	2B\	1g
1D	.	1A	.
.	.	.	2f#i/
=87	=87	=87	=87
2r	1d	1G	0g
2G\	.	.	.
2G\	1B	2r	.
2G\	.	2d\	.
=88	=88	=88	=88
2D\	1d	2d\	0r
2F\	.	2A/	.
1C	1e	2c\	.
.	.	2c\	.
=89	=89	=89	=89
2r	1e	1G	0r
2G\	.	.	.
2G\	1d	2r	.
2G\	.	2d\	.
=90	=90	=90	=90
2D\	1d	2d\	0r
2F\	.	2A/	.
1C	1r	2c\	.
.	.	2c\	.
=91	=91	=91	=91
1C	2r	2G/	2r
.	1d	2G/	2g/
1GG	.	1G	2g/
.	2B\	.	2d/
=92	=92	=92	=92
0r	1d	0r	2f/
.	.	.	2f/
.	1e	.	2c/
.	.	.	2g/
=93	=93	=93	=93
0r	1e	0r	2g/
.	.	.	2e/
.	2d\	.	2f/
.	2B\	.	2d/
=94	=94	=94	=94
0r	1d	0r	2.f/
.	.	.	4e/
.	1e	.	1c
=95	=95	=95	=95
1C	1e	0r	2r
.	.	.	1cc
1G	1d	.	.
.	.	.	[2b\
=96	=96	=96	=96
2G\	1d	2.B\	2b\]
4F\	.	.	4a/
4E\	.	4c\	4g/
2F\	2r	2A/	2a/
[2G\	[2d\	2G/	2b\
=97	=97	=97	=97
2G\]	2d\]	2.B\	2g/
2G\	2B\	.	2b\
.	.	4G/	.
2F\	2d\	2A/	2a/
[2E\	[2e\	2B\	[2g/
=98	=98	=98	=98
2E\]	2e\]	1G	2g/]
2G\	2d\	.	2b\
2D\	1d	2r	2a/
[2G\	.	[2B\	[2g/
=99	=99	=99	=99
4G\]	2r	4B\]	4g/]
4F\	.	4c\	4b\
2D\	2d\	2d\	2a/
2E\	2B\	2G/	2g/
2D\	2d\	2A/	2f/
=100	=100	=100	=100
2r	[0e	2c\	1e
2C/	.	2.c\	.
2.C/	.	.	2r
.	.	4d\	.
.	.	4e\	2g/
4D\	.	4f\	.
=101	=101	=101	=101
4E\	1e]	2.g\	2.g/
4F\	.	.	.
2.G\	.	.	.
.	.	4f\	4a/
.	1d	2.d\	4b\
4F\	.	.	4cc\
[2D\	.	.	[2dd\
.	.	4e\	.
=102	=102	=102	=102
4D\]	1d	2.f\	4dd\]
4E\	.	.	4cc\
2.F\	.	.	2.a/
.	.	4e\	.
.	1r	4c\	.
4E\	.	4d\	4b\
4C/	.	4e\	4cc\
4D\	.	4f\	4b\
=103	=103	=103	=103
4E\	2r	2g\	4a/
4F\	.	.	4g/
2G\	1d	2G/	1g
1D	.	1A	.
.	2d\	.	2f#i/
=104	=104	=104	=104
[0GGl	2B\	[0Gl	[0gl
.	2d\	.	.
.	2.e\	.	.
.	4d\	.	.
=105	=105	=105	=105
0GG]	0dl	0G]	0g]
==	==	==	==
*-	*-	*-	*-
!!!RDF**kern: %=rational rhythm
!!!rscale-alt: 1/4
!!!RDF**kern: l=long note in original notation
!!!RDF**kern: i=editorial accidental
!!!ENC: Jesse Rodin; Victoria Chang 2011/04/03
!!!END: 2011/04/03/
!!!EED:	Jesse Rodin
!!!EEV:	2011/11/02/
!!attribution-level@Jos: 6 (very doubtful)
!!!ONB:	Translated from MusicXML and edited on 2011/02/11/ by Craig Sapp
!!muse2ps: T^@{OPR}^u^@{ONM}{. }@{OTL}^C^La Rue/Josquin?\n@{SCT}^i2I100v85,90,85,150Q16
